Newaita-dark/apps/32/messengerfordesktop.svg

<svg height="32" viewBox="0 0 32 32" width="32" xmlns="http://www.w3.org/2000/svg" xmlns:xlink="http://www.w3.org/1999/xlink"><linearGradient id="a"><stop offset="0" stop-opacity=".313726"/><stop offset=".222222" stop-opacity=".27451"/><stop offset="1" stop-opacity="0"/></linearGradient><radialGradient id="b" cx="450.908936" cy="189.579361" gradientTransform="matrix(.00000017 -.0781325 -.140638 -.0000001 42.869349 63.595329)" gradientUnits="userSpaceOnUse" r="21.166656" xlink:href="#a"/><radialGradient id="c" cx="450.908936" cy="189.579361" gradientTransform="matrix(-.00000017 .0781325 .140638 .0000001 -21.039135 -7.527482)" gradientUnits="userSpaceOnUse" r="21.166656" xlink:href="#a"/><radialGradient id="d" cx="450.908936" cy="189.579361" gradientTransform="matrix(-.00000017 -.0781325 .140638 -.0000001 -21.039135 63.595329)" gradientUnits="userSpaceOnUse" r="21.166656" xlink:href="#a"/><radialGradient id="e" cx="450.908936" cy="189.579361" gradientTransform="matrix(.00000017 .0781325 -.140638 .0000001 42.869345 -7.527483)" gradientUnits="userSpaceOnUse" r="21.166656" xlink:href="#a"/><linearGradient id="f" gradientTransform="matrix(.0324458 0 0 .062506 2.630931 13.438784)" gradientUnits="userSpaceOnUse" x1="255.323059" x2="255.323044" y1="233.5" y2="254.666656"><stop offset="0" stop-opacity=".27451"/><stop offset="1" stop-opacity="0"/></linearGradient><linearGradient id="g"><stop offset="0" stop-color="#82b1ff"/><stop offset="1" stop-color="#448aff"/></linearGradient><linearGradient id="h" gradientUnits="userSpaceOnUse" x1="126.656886" x2="126.656886" xlink:href="#g" y1="148.833328" y2="233.5"/><linearGradient id="i" gradientUnits="userSpaceOnUse" x1="254" x2="254" xlink:href="#g" y1="-168.666672" y2="233.5"/><linearGradient id="j"><stop offset="0" stop-color="#e0e0e0"/><stop offset="1" stop-color="#f5f5f5"/></linearGradient><linearGradient id="k" gradientTransform="matrix(.062506 0 0 -.062506 0 17.491254)" gradientUnits="userSpaceOnUse" x1="254" x2="254" xlink:href="#j" y1=".666667" y2="64.166664"/><linearGradient id="l" gradientTransform="matrix(.062506 0 0 -.062506 5.953693 17.491254)" gradientUnits="userSpaceOnUse" x1="254" x2="254" xlink:href="#j" y1=".666667" y2="64.166664"/><linearGradient id="m" gradientTransform="matrix(.062506 0 0 -.062506 -5.953693 17.491254)" gradientUnits="userSpaceOnUse" x1="254" x2="254" xlink:href="#j" y1=".666667" y2="64.166664"/><path d="m16.539062 28.035156h2.644532v-1.324218h-2.644532zm0 0" fill="url(#b)"/><path d="m5.292969 28.035156h-2.648438v1.320313h2.648438zm0 0" fill="url(#c)"/><path d="m5.292969 28.035156h-2.648438v-1.324218h2.648438zm0 0" fill="url(#d)"/><path d="m16.539062 28.035156h2.644532v1.320313h-2.644532zm0 0" fill="url(#e)"/><path d="m5.292969 27.703125h11.246093v1.652344h-11.246093zm0 0" fill="url(#f)"/><path d="m126.987873 148.840255c-2.624749-.062494-5.187004.812422-7.186813 2.562255l-74.117923 63.493937c-7.436789 6.374391-2.937219 18.623222 6.874344 18.623222h211.667287c11.373914 0 14.748591-15.436026 4.437076-20.185573l-137.549365-63.493936c-1.312374-.624941-2.687243-.937411-4.124606-.999905zm0 0" style="fill-rule:evenodd;stroke-width:3;stroke-linecap:round;stroke-linejoin:round;stroke:#212121;fill:url(#h)" transform="matrix(.062506 0 0 .062506 0 13.438783)"/><path d="m253.975747-168.691922c111.051895 0 201.105795 90.0539 201.105795 201.105795s-90.0539 201.105796-201.105795 201.105796c-111.051896 0-201.043302-90.053901-201.043302-201.105796s89.991406-201.105795 201.043302-201.105795zm0 0" fill="url(#i)" stroke="#333" stroke-linecap="round" stroke-width="3" transform="matrix(.062506 0 0 .062506 0 13.438783)"/><path d="m15.875 28.035156c-6.960938 0-12.566406-5.605468-12.566406-12.570312 0-.039063 0-.082032 0-.121094.066406 6.902344 5.644531 12.445312 12.566406 12.445312s12.503906-5.542968 12.570312-12.445312v.121094c0 6.964844-5.605468 12.570312-12.570312 12.570312zm0 0" fill-opacity=".196078"/><path d="m15.875 2.894531c-6.960938 0-12.566406 5.605469-12.566406 12.570313v.125c.066406-6.90625 5.644531-12.449219 12.566406-12.449219s12.503906 5.542969 12.570312 12.449219c0-.042969 0-.082032 0-.125 0-6.964844-5.605468-12.570313-12.570312-12.570313zm0 0" fill="#fff" fill-opacity=".392157"/><path d="m15.875 2.800781c-7.011719 0-12.660156 5.652344-12.660156 12.664063 0 7.011718 5.648437 12.664062 12.660156 12.664062 7.015625 0 12.664062-5.652344 12.664062-12.664062 0-7.011719-5.648437-12.664063-12.664062-12.664063zm0 .1875c6.914062 0 12.476562 5.5625 12.476562 12.476563 0 6.914062-5.5625 12.476562-12.476562 12.476562-6.910156 0-12.472656-5.5625-12.472656-12.476562 0-6.914063 5.5625-12.476563 12.472656-12.476563zm0 0" fill="#212121"/><path d="m15.875 17.449219c1.097656 0 1.984375-.886719 1.984375-1.984375s-.886719-1.984375-1.984375-1.984375c-1.09375 0-1.984375.886719-1.984375 1.984375s.890625 1.984375 1.984375 1.984375zm0 0" fill="url(#k)"/><path d="m21.832031 17.449219c1.09375 0 1.984375-.886719 1.984375-1.984375s-.890625-1.984375-1.984375-1.984375c-1.097656 0-1.988281.886719-1.988281 1.984375s.890625 1.984375 1.988281 1.984375zm0 0" fill="url(#l)"/><path d="m9.921875 17.449219c1.097656 0 1.984375-.886719 1.984375-1.984375s-.886719-1.984375-1.984375-1.984375c-1.09375 0-1.984375.886719-1.984375 1.984375s.890625 1.984375 1.984375 1.984375zm0 0" fill="url(#m)"/><path d="m15.875 13.480469c-1.097656 0-1.984375.886719-1.984375 1.984375 0 .085937.007813.167968.015625.25.121094-.984375.953125-1.738282 1.96875-1.738282s1.847656.753907 1.972656 1.738282c.007813-.082032.011719-.164063.011719-.25 0-1.097656-.882813-1.984375-1.984375-1.984375zm0 0" fill="#fcfcfc"/><path d="m21.832031 13.480469c-1.101562 0-1.988281.886719-1.988281 1.984375 0 .085937.007812.167968.015625.25.121094-.984375.957031-1.738282 1.972656-1.738282 1.011719 0 1.847657.753907 1.96875 1.738282.007813-.082032.015625-.164063.015625-.25 0-1.097656-.886718-1.984375-1.984375-1.984375zm0 0" fill="#fcfcfc"/><path d="m9.921875 13.480469c-1.097656 0-1.984375.886719-1.984375 1.984375 0 .085937.007812.167968.015625.25.121094-.984375.953125-1.738282 1.96875-1.738282s1.847656.753907 1.96875 1.738282c.011719-.082032.015625-.164063.015625-.25 0-1.097656-.882812-1.984375-1.984375-1.984375zm0 0" fill="#fcfcfc"/><path d="m13.917969 15.796875c-.015625.105469-.027344.21875-.027344.328125 0 1.101562.886719 1.984375 1.984375 1.984375 1.101562 0 1.984375-.882813 1.984375-1.984375 0-.109375-.007813-.222656-.027344-.328125-.15625.941406-.96875 1.652344-1.957031 1.652344-.984375 0-1.800781-.710938-1.957031-1.652344zm0 0" fill-opacity=".235294"/><path d="m19.871094 15.796875c-.015625.105469-.027344.21875-.027344.328125 0 1.101562.886719 1.984375 1.988281 1.984375 1.097657 0 1.984375-.882813 1.984375-1.984375 0-.109375-.011718-.222656-.027344-.328125-.160156.941406-.972656 1.652344-1.957031 1.652344-.988281 0-1.800781-.710938-1.960937-1.652344zm0 0" fill-opacity=".235294"/><path d="m7.964844 15.796875c-.015625.105469-.027344.21875-.027344.328125 0 1.101562.886719 1.984375 1.984375 1.984375 1.101563 0 1.984375-.882813 1.984375-1.984375 0-.109375-.007812-.222656-.027344-.328125-.15625.941406-.96875 1.652344-1.957031 1.652344-.984375 0-1.800781-.710938-1.957031-1.652344zm0 0" fill-opacity=".235294"/><g stroke="#212121" stroke-linecap="round" stroke-linejoin="round" stroke-width="3"><path d="m253.975747-64.160841c17.560823 0 31.746968 14.186145 31.746968 31.746968s-14.186145 31.746968-31.746968 31.746968c-17.498329 0-31.746969-14.186145-31.746969-31.746968s14.24864-31.746968 31.746969-31.746968zm0 0" fill="none" transform="matrix(.062506 0 0 -.062506 0 13.438783)"/><path d="m349.279146-64.160841c17.498329 0 31.746968 14.186145 31.746968 31.746968s-14.248639 31.746968-31.746968 31.746968c-17.560824 0-31.809463-14.186145-31.809463-31.746968s14.248639-31.746968 31.809463-31.746968zm0 0" fill="none" transform="matrix(.062506 0 0 -.062506 0 13.438783)"/><path d="m158.734842-64.160841c17.560823 0 31.746968 14.186145 31.746968 31.746968s-14.186145 31.746968-31.746968 31.746968c-17.498329 0-31.746969-14.186145-31.746969-31.746968s14.24864-31.746968 31.746969-31.746968zm0 0" fill="none" transform="matrix(.062506 0 0 -.062506 0 13.438783)"/></g></svg>

<?xml version="1.0" encoding="UTF-8"?>
<svg xmlns="http://www.w3.org/2000/svg" xmlns:xlink="http://www.w3.org/1999/xlink" width="32px" height="32px" viewBox="0 0 32 32" version="1.1">
<defs>
<radialGradient id="radial0" gradientUnits="userSpaceOnUse" cx="450.908936" cy="189.579361" fx="450.908936" fy="189.579361" r="21.166656" gradientTransform="matrix(0.00000017417,-0.0781325,-0.140638,-0.000000101539,42.869349,63.595329)">
<stop offset="0" style="stop-color:rgb(0%,0%,0%);stop-opacity:0.313726;"/>
<stop offset="0.222222" style="stop-color:rgb(0%,0%,0%);stop-opacity:0.27451;"/>
<stop offset="1" style="stop-color:rgb(0%,0%,0%);stop-opacity:0;"/>
</radialGradient>
<radialGradient id="radial1" gradientUnits="userSpaceOnUse" cx="450.908936" cy="189.579361" fx="450.908936" fy="189.579361" r="21.166656" gradientTransform="matrix(-0.00000017417,0.0781325,0.140638,0.000000101539,-21.039135,-7.527482)">
<stop offset="0" style="stop-color:rgb(0%,0%,0%);stop-opacity:0.313726;"/>
<stop offset="0.222222" style="stop-color:rgb(0%,0%,0%);stop-opacity:0.27451;"/>
<stop offset="1" style="stop-color:rgb(0%,0%,0%);stop-opacity:0;"/>
</radialGradient>
<radialGradient id="radial2" gradientUnits="userSpaceOnUse" cx="450.908936" cy="189.579361" fx="450.908936" fy="189.579361" r="21.166656" gradientTransform="matrix(-0.00000017417,-0.0781325,0.140638,-0.000000101539,-21.039135,63.595329)">
<stop offset="0" style="stop-color:rgb(0%,0%,0%);stop-opacity:0.313726;"/>
<stop offset="0.222222" style="stop-color:rgb(0%,0%,0%);stop-opacity:0.27451;"/>
<stop offset="1" style="stop-color:rgb(0%,0%,0%);stop-opacity:0;"/>
</radialGradient>
<radialGradient id="radial3" gradientUnits="userSpaceOnUse" cx="450.908936" cy="189.579361" fx="450.908936" fy="189.579361" r="21.166656" gradientTransform="matrix(0.00000017417,0.0781325,-0.140638,0.000000101539,42.869345,-7.527483)">
<stop offset="0" style="stop-color:rgb(0%,0%,0%);stop-opacity:0.313726;"/>
<stop offset="0.222222" style="stop-color:rgb(0%,0%,0%);stop-opacity:0.27451;"/>
<stop offset="1" style="stop-color:rgb(0%,0%,0%);stop-opacity:0;"/>
</radialGradient>
<linearGradient id="linear0" gradientUnits="userSpaceOnUse" x1="255.323059" y1="233.5" x2="255.323044" y2="254.666656" gradientTransform="matrix(0.0324458,0,0,0.062506,2.630931,13.438784)">
<stop offset="0" style="stop-color:rgb(0%,0%,0%);stop-opacity:0.27451;"/>
<stop offset="1" style="stop-color:rgb(0%,0%,0%);stop-opacity:0;"/>
</linearGradient>
<linearGradient id="linear1" gradientUnits="userSpaceOnUse" x1="116.416656" y1="148.833328" x2="116.416656" y2="233.5" gradientTransform="matrix(1,0,0,1,10.24023,0)">
<stop offset="0" style="stop-color:rgb(50.980395%,69.411767%,100%);stop-opacity:1;"/>
<stop offset="1" style="stop-color:rgb(26.666668%,54.11765%,100%);stop-opacity:1;"/>
</linearGradient>
<linearGradient id="linear2" gradientUnits="userSpaceOnUse" x1="254" y1="-168.666672" x2="254" y2="233.5" >
<stop offset="0" style="stop-color:rgb(50.980395%,69.411767%,100%);stop-opacity:1;"/>
<stop offset="1" style="stop-color:rgb(26.666668%,54.11765%,100%);stop-opacity:1;"/>
</linearGradient>
<linearGradient id="linear3" gradientUnits="userSpaceOnUse" x1="254" y1="0.666667" x2="254" y2="64.166664" gradientTransform="matrix(0.062506,0,0,-0.062506,0,17.491254)">
<stop offset="0" style="stop-color:rgb(87.843138%,87.843138%,87.843138%);stop-opacity:1;"/>
<stop offset="1" style="stop-color:rgb(96.078432%,96.078432%,96.078432%);stop-opacity:1;"/>
</linearGradient>
<linearGradient id="linear4" gradientUnits="userSpaceOnUse" x1="254" y1="0.666667" x2="254" y2="64.166664" gradientTransform="matrix(0.062506,0,0,-0.062506,5.953693,17.491254)">
<stop offset="0" style="stop-color:rgb(87.843138%,87.843138%,87.843138%);stop-opacity:1;"/>
<stop offset="1" style="stop-color:rgb(96.078432%,96.078432%,96.078432%);stop-opacity:1;"/>
</linearGradient>
<linearGradient id="linear5" gradientUnits="userSpaceOnUse" x1="254" y1="0.666667" x2="254" y2="64.166664" gradientTransform="matrix(0.062506,0,0,-0.062506,-5.953693,17.491254)">
<stop offset="0" style="stop-color:rgb(87.843138%,87.843138%,87.843138%);stop-opacity:1;"/>
<stop offset="1" style="stop-color:rgb(96.078432%,96.078432%,96.078432%);stop-opacity:1;"/>
</linearGradient>
</defs>
<g id="surface1">
<path style=" stroke:none;fill-rule:nonzero;fill:url(#radial0);" d="M 16.539062 28.035156 L 19.183594 28.035156 L 19.183594 26.710938 L 16.539062 26.710938 Z M 16.539062 28.035156 "/>
<path style=" stroke:none;fill-rule:nonzero;fill:url(#radial1);" d="M 5.292969 28.035156 L 2.644531 28.035156 L 2.644531 29.355469 L 5.292969 29.355469 Z M 5.292969 28.035156 "/>
<path style=" stroke:none;fill-rule:nonzero;fill:url(#radial2);" d="M 5.292969 28.035156 L 2.644531 28.035156 L 2.644531 26.710938 L 5.292969 26.710938 Z M 5.292969 28.035156 "/>
<path style=" stroke:none;fill-rule:nonzero;fill:url(#radial3);" d="M 16.539062 28.035156 L 19.183594 28.035156 L 19.183594 29.355469 L 16.539062 29.355469 Z M 16.539062 28.035156 "/>
<path style=" stroke:none;fill-rule:nonzero;fill:url(#linear0);" d="M 5.292969 27.703125 L 16.539062 27.703125 L 16.539062 29.355469 L 5.292969 29.355469 Z M 5.292969 27.703125 "/>
<path style="fill-rule:evenodd;fill:url(#linear1);stroke-width:3;stroke-linecap:round;stroke-linejoin:round;stroke:rgb(12.941177%,12.941177%,12.941177%);stroke-opacity:1;stroke-miterlimit:4;" d="M 126.987873 148.840255 C 124.363124 148.777761 121.800869 149.652677 119.80106 151.40251 L 45.683137 214.896447 C 38.246348 221.270838 42.745918 233.519669 52.557481 233.519669 L 264.224768 233.519669 C 275.598682 233.519669 278.973359 218.083643 268.661844 213.334096 L 131.112479 149.84016 C 129.800105 149.215219 128.425236 148.902749 126.987873 148.840255 Z M 126.987873 148.840255 " transform="matrix(0.062506,0,0,0.062506,0,13.438783)"/>
<path style="fill-rule:nonzero;fill:url(#linear2);stroke-width:3;stroke-linecap:round;stroke-linejoin:miter;stroke:rgb(20%,20%,20%);stroke-opacity:1;stroke-miterlimit:4;" d="M 253.975747 -168.691922 C 365.027642 -168.691922 455.081542 -78.638022 455.081542 32.413873 C 455.081542 143.465768 365.027642 233.519669 253.975747 233.519669 C 142.923851 233.519669 52.932445 143.465768 52.932445 32.413873 C 52.932445 -78.638022 142.923851 -168.691922 253.975747 -168.691922 Z M 253.975747 -168.691922 " transform="matrix(0.062506,0,0,0.062506,0,13.438783)"/>
<path style=" stroke:none;fill-rule:nonzero;fill:rgb(0%,0%,0%);fill-opacity:0.196078;" d="M 15.875 28.035156 C 8.914062 28.035156 3.308594 22.429688 3.308594 15.464844 C 3.308594 15.425781 3.308594 15.382812 3.308594 15.34375 C 3.375 22.246094 8.953125 27.789062 15.875 27.789062 C 22.796875 27.789062 28.378906 22.246094 28.445312 15.34375 C 28.445312 15.382812 28.445312 15.425781 28.445312 15.464844 C 28.445312 22.429688 22.839844 28.035156 15.875 28.035156 Z M 15.875 28.035156 "/>
<path style=" stroke:none;fill-rule:nonzero;fill:rgb(100%,100%,100%);fill-opacity:0.392157;" d="M 15.875 2.894531 C 8.914062 2.894531 3.308594 8.5 3.308594 15.464844 C 3.308594 15.507812 3.308594 15.546875 3.308594 15.589844 C 3.375 8.683594 8.953125 3.140625 15.875 3.140625 C 22.796875 3.140625 28.378906 8.683594 28.445312 15.589844 C 28.445312 15.546875 28.445312 15.507812 28.445312 15.464844 C 28.445312 8.5 22.839844 2.894531 15.875 2.894531 Z M 15.875 2.894531 "/>
<path style=" stroke:none;fill-rule:nonzero;fill:rgb(12.941177%,12.941177%,12.941177%);fill-opacity:1;" d="M 15.875 2.800781 C 8.863281 2.800781 3.214844 8.453125 3.214844 15.464844 C 3.214844 22.476562 8.863281 28.128906 15.875 28.128906 C 22.890625 28.128906 28.539062 22.476562 28.539062 15.464844 C 28.539062 8.453125 22.890625 2.800781 15.875 2.800781 Z M 15.875 2.988281 C 22.789062 2.988281 28.351562 8.550781 28.351562 15.464844 C 28.351562 22.378906 22.789062 27.941406 15.875 27.941406 C 8.964844 27.941406 3.402344 22.378906 3.402344 15.464844 C 3.402344 8.550781 8.964844 2.988281 15.875 2.988281 Z M 15.875 2.988281 "/>
<path style=" stroke:none;fill-rule:nonzero;fill:url(#linear3);" d="M 15.875 17.449219 C 16.972656 17.449219 17.859375 16.5625 17.859375 15.464844 C 17.859375 14.367188 16.972656 13.480469 15.875 13.480469 C 14.78125 13.480469 13.890625 14.367188 13.890625 15.464844 C 13.890625 16.5625 14.78125 17.449219 15.875 17.449219 Z M 15.875 17.449219 "/>
<path style=" stroke:none;fill-rule:nonzero;fill:url(#linear4);" d="M 21.832031 17.449219 C 22.925781 17.449219 23.816406 16.5625 23.816406 15.464844 C 23.816406 14.367188 22.925781 13.480469 21.832031 13.480469 C 20.734375 13.480469 19.84375 14.367188 19.84375 15.464844 C 19.84375 16.5625 20.734375 17.449219 21.832031 17.449219 Z M 21.832031 17.449219 "/>
<path style=" stroke:none;fill-rule:nonzero;fill:url(#linear5);" d="M 9.921875 17.449219 C 11.019531 17.449219 11.90625 16.5625 11.90625 15.464844 C 11.90625 14.367188 11.019531 13.480469 9.921875 13.480469 C 8.828125 13.480469 7.9375 14.367188 7.9375 15.464844 C 7.9375 16.5625 8.828125 17.449219 9.921875 17.449219 Z M 9.921875 17.449219 "/>
<path style=" stroke:none;fill-rule:nonzero;fill:rgb(98.823529%,98.823529%,98.823529%);fill-opacity:1;" d="M 15.875 13.480469 C 14.777344 13.480469 13.890625 14.367188 13.890625 15.464844 C 13.890625 15.550781 13.898438 15.632812 13.90625 15.714844 C 14.027344 14.730469 14.859375 13.976562 15.875 13.976562 C 16.890625 13.976562 17.722656 14.730469 17.847656 15.714844 C 17.855469 15.632812 17.859375 15.550781 17.859375 15.464844 C 17.859375 14.367188 16.976562 13.480469 15.875 13.480469 Z M 15.875 13.480469 "/>
<path style=" stroke:none;fill-rule:nonzero;fill:rgb(98.823529%,98.823529%,98.823529%);fill-opacity:1;" d="M 21.832031 13.480469 C 20.730469 13.480469 19.84375 14.367188 19.84375 15.464844 C 19.84375 15.550781 19.851562 15.632812 19.859375 15.714844 C 19.980469 14.730469 20.816406 13.976562 21.832031 13.976562 C 22.84375 13.976562 23.679688 14.730469 23.800781 15.714844 C 23.808594 15.632812 23.816406 15.550781 23.816406 15.464844 C 23.816406 14.367188 22.929688 13.480469 21.832031 13.480469 Z M 21.832031 13.480469 "/>
<path style=" stroke:none;fill-rule:nonzero;fill:rgb(98.823529%,98.823529%,98.823529%);fill-opacity:1;" d="M 9.921875 13.480469 C 8.824219 13.480469 7.9375 14.367188 7.9375 15.464844 C 7.9375 15.550781 7.945312 15.632812 7.953125 15.714844 C 8.074219 14.730469 8.90625 13.976562 9.921875 13.976562 C 10.9375 13.976562 11.769531 14.730469 11.890625 15.714844 C 11.902344 15.632812 11.90625 15.550781 11.90625 15.464844 C 11.90625 14.367188 11.023438 13.480469 9.921875 13.480469 Z M 9.921875 13.480469 "/>
<path style=" stroke:none;fill-rule:nonzero;fill:rgb(0%,0%,0%);fill-opacity:0.235294;" d="M 13.917969 15.796875 C 13.902344 15.902344 13.890625 16.015625 13.890625 16.125 C 13.890625 17.226562 14.777344 18.109375 15.875 18.109375 C 16.976562 18.109375 17.859375 17.226562 17.859375 16.125 C 17.859375 16.015625 17.851562 15.902344 17.832031 15.796875 C 17.675781 16.738281 16.863281 17.449219 15.875 17.449219 C 14.890625 17.449219 14.074219 16.738281 13.917969 15.796875 Z M 13.917969 15.796875 "/>
<path style=" stroke:none;fill-rule:nonzero;fill:rgb(0%,0%,0%);fill-opacity:0.235294;" d="M 19.871094 15.796875 C 19.855469 15.902344 19.84375 16.015625 19.84375 16.125 C 19.84375 17.226562 20.730469 18.109375 21.832031 18.109375 C 22.929688 18.109375 23.816406 17.226562 23.816406 16.125 C 23.816406 16.015625 23.804688 15.902344 23.789062 15.796875 C 23.628906 16.738281 22.816406 17.449219 21.832031 17.449219 C 20.84375 17.449219 20.03125 16.738281 19.871094 15.796875 Z M 19.871094 15.796875 "/>
<path style=" stroke:none;fill-rule:nonzero;fill:rgb(0%,0%,0%);fill-opacity:0.235294;" d="M 7.964844 15.796875 C 7.949219 15.902344 7.9375 16.015625 7.9375 16.125 C 7.9375 17.226562 8.824219 18.109375 9.921875 18.109375 C 11.023438 18.109375 11.90625 17.226562 11.90625 16.125 C 11.90625 16.015625 11.898438 15.902344 11.878906 15.796875 C 11.722656 16.738281 10.910156 17.449219 9.921875 17.449219 C 8.9375 17.449219 8.121094 16.738281 7.964844 15.796875 Z M 7.964844 15.796875 "/>
<path style="fill:none;stroke-width:3;stroke-linecap:round;stroke-linejoin:round;stroke:rgb(12.941177%,12.941177%,12.941177%);stroke-opacity:1;stroke-miterlimit:4;" d="M 253.975747 -64.160841 C 271.53657 -64.160841 285.722715 -49.974696 285.722715 -32.413873 C 285.722715 -14.85305 271.53657 -0.666905 253.975747 -0.666905 C 236.477418 -0.666905 222.228778 -14.85305 222.228778 -32.413873 C 222.228778 -49.974696 236.477418 -64.160841 253.975747 -64.160841 Z M 253.975747 -64.160841 " transform="matrix(0.062506,0,0,-0.062506,0,13.438783)"/>
<path style="fill:none;stroke-width:3;stroke-linecap:round;stroke-linejoin:round;stroke:rgb(12.941177%,12.941177%,12.941177%);stroke-opacity:1;stroke-miterlimit:4;" d="M 349.279146 -64.160841 C 366.777475 -64.160841 381.026114 -49.974696 381.026114 -32.413873 C 381.026114 -14.85305 366.777475 -0.666905 349.279146 -0.666905 C 331.718322 -0.666905 317.469683 -14.85305 317.469683 -32.413873 C 317.469683 -49.974696 331.718322 -64.160841 349.279146 -64.160841 Z M 349.279146 -64.160841 " transform="matrix(0.062506,0,0,-0.062506,0,13.438783)"/>
<path style="fill:none;stroke-width:3;stroke-linecap:round;stroke-linejoin:round;stroke:rgb(12.941177%,12.941177%,12.941177%);stroke-opacity:1;stroke-miterlimit:4;" d="M 158.734842 -64.160841 C 176.295665 -64.160841 190.48181 -49.974696 190.48181 -32.413873 C 190.48181 -14.85305 176.295665 -0.666905 158.734842 -0.666905 C 141.236513 -0.666905 126.987873 -14.85305 126.987873 -32.413873 C 126.987873 -49.974696 141.236513 -64.160841 158.734842 -64.160841 Z M 158.734842 -64.160841 " transform="matrix(0.062506,0,0,-0.062506,0,13.438783)"/>
</g>
</svg>
